public/images/case-studies/filemaker/benefits-right-hashtag.svg

<svg width="476" height="482" viewBox="0 0 476 482" fill="none" xmlns="http://www.w3.org/2000/svg">
<path d="M61.6068 322.169H133.482L119.792 243.663H61.6068C30.8032 243.663 6.84515 219.769 6.84515 189.049C6.84515 158.329 30.8032 134.436 61.6068 134.436H102.679L88.9879 62.7556C82.1426 35.4489 102.678 8.14214 133.482 1.31546C160.863 -5.51122 188.244 14.9688 195.089 45.6889L212.202 134.436H318.303L304.613 62.7556C297.768 35.4489 318.304 8.14214 349.107 1.31546C376.488 -5.51122 403.869 14.9688 410.715 45.6889L427.828 134.436H520.238C551.042 134.436 575 158.329 575 189.049C575 219.769 544.197 243.663 513.393 243.663H441.518L455.208 322.169H513.393C544.197 322.169 568.155 346.063 568.155 376.783C568.155 407.503 544.197 431.396 513.393 431.396H472.321L486.012 503.077C492.857 530.383 472.322 557.69 441.518 564.517C420.982 571.343 386.756 554.277 379.911 520.143L362.798 431.396H256.697L270.387 503.077C277.232 530.383 256.696 557.69 225.893 564.517C205.357 571.343 171.131 554.277 164.285 520.143L147.172 431.396H54.7616C23.958 431.396 0 407.503 0 376.783C10.2679 346.063 34.2258 322.169 61.6068 322.169ZM243.006 322.169H349.107L335.417 243.663H229.316L243.006 322.169Z" fill="url(#paint0_linear)" fill-opacity="0.5"/>
<path d="M135.452 321.826L135.861 324.169H133.482H61.6068C35.5312 324.169 12.1848 346.958 2.00092 377.107C2.16858 406.561 25.166 429.396 54.7616 429.396H147.172H148.824L149.136 431.018L166.246 519.75C166.247 519.752 166.247 519.755 166.248 519.757C169.554 536.231 179.462 548.587 191.035 556.006C202.67 563.466 215.73 565.787 225.262 562.619L225.359 562.586L225.46 562.564C255.469 555.913 274.948 529.496 268.447 503.563L268.433 503.508L268.422 503.452L254.732 431.772L254.279 429.396H256.697H362.798H364.449L364.761 431.018L381.872 519.75C381.872 519.752 381.873 519.755 381.873 519.757C385.179 536.231 395.087 548.587 406.66 556.006C418.296 563.466 431.356 565.787 440.887 562.619L440.985 562.586L441.085 562.564C471.095 555.913 490.573 529.496 484.072 503.563L484.058 503.508L484.048 503.452L470.357 431.772L469.903 429.396H472.321H513.393C543.097 429.396 566.155 406.393 566.155 376.783C566.155 347.173 543.097 324.169 513.393 324.169H455.208H453.527L453.238 322.513L439.548 244.006L439.139 241.663H441.518H513.393C528.298 241.663 543.245 235.873 554.453 226.352C565.653 216.837 573 203.707 573 189.049C573 159.439 549.942 136.436 520.238 136.436H427.828H426.177L425.864 134.814L408.756 46.0959C402.08 16.1947 375.602 -3.22893 349.591 3.25605L349.566 3.2624L349.54 3.26808C319.531 9.91876 300.052 36.3358 306.553 62.2693L306.567 62.3245L306.578 62.3804L320.268 134.061L320.722 136.436H318.303H212.202H210.551L210.239 134.814L193.131 46.0954C186.454 16.1945 159.976 -3.22889 133.966 3.25605L133.94 3.2624L133.915 3.26808C103.905 9.91876 84.4268 36.3358 90.9278 62.2693L90.9417 62.3245L90.9523 62.3804L104.643 134.061L105.097 136.436H102.679H61.6068C31.9026 136.436 8.84515 159.439 8.84515 189.049C8.84515 218.66 31.9026 241.663 61.6068 241.663H119.792H121.473L121.762 243.319L135.452 321.826ZM243.006 324.169H241.324L241.036 322.513L227.345 244.006L226.937 241.663H229.316H335.417H337.098L337.387 243.319L351.078 321.826L351.486 324.169H349.107H243.006Z" stroke="#FF8A00" stroke-opacity="0.4" stroke-width="4"/>
<defs>
<linearGradient id="paint0_linear" x1="287.5" y1="0" x2="287.5" y2="566" gradientUnits="userSpaceOnUse">
<stop stop-color="#FF9900"/>
<stop offset="1" stop-color="#FF6B00"/>
</linearGradient>
</defs>
</svg>

<svg xmlns="http://www.w3.org/2000/svg" width="476" height="482" fill="none" xmlns:v="https://vecta.io/nano"><path d="M61.607 322.169h71.875l-13.69-78.506H61.607c-30.804 0-54.762-23.894-54.762-54.614s23.958-54.613 54.762-54.613h41.072l-13.691-71.68c-6.845-27.307 13.69-54.613 44.494-61.44 27.381-6.827 54.762 13.653 61.607 44.373l17.113 88.747h106.101l-13.69-71.68c-6.845-27.307 13.691-54.613 44.494-61.44 27.381-6.827 54.762 13.653 61.608 44.373l17.113 88.747h92.41c30.804 0 54.762 23.893 54.762 54.613s-30.803 54.614-61.607 54.614h-71.875l13.69 78.506h58.185c30.804 0 54.762 23.894 54.762 54.614s-23.958 54.613-54.762 54.613h-41.072l13.691 71.681c6.845 27.306-13.69 54.613-44.494 61.44-20.536 6.826-54.762-10.24-61.607-44.374l-17.113-88.747H256.697l13.69 71.681c6.845 27.306-13.691 54.613-44.494 61.44-20.536 6.826-54.762-10.24-61.608-44.374l-17.113-88.747h-92.41C23.958 431.396 0 407.503 0 376.783c10.268-30.72 34.226-54.614 61.607-54.614zm181.399 0h106.101l-13.69-78.506H229.316l13.69 78.506z" fill="url(#A)" fill-opacity=".5"/><path d="M135.452 321.826l.409 2.343h-2.379-71.875c-26.076 0-49.422 22.789-59.606 52.938.168 29.454 23.165 52.289 52.761 52.289h92.41 1.652l.312 1.622 17.11 88.732c3.308 16.481 13.216 28.837 24.789 36.256 11.635 7.46 24.695 9.781 34.227 6.613l.097-.033.101-.022c30.009-6.651 49.488-33.068 42.987-59.001l-.014-.055-.011-.056-13.69-71.68-.453-2.376h2.418 106.101 1.651l.312 1.622 17.111 88.732c3.307 16.481 13.215 28.837 24.788 36.256 11.636 7.46 24.696 9.781 34.227 6.613l.098-.033.1-.022c30.01-6.651 49.488-33.068 42.987-59.001l-.014-.055-.01-.056-13.691-71.68-.454-2.376h2.418 41.072c29.704 0 52.762-23.003 52.762-52.613s-23.058-52.614-52.762-52.614h-58.185-1.681l-.289-1.656-13.69-78.507-.409-2.343h2.379 71.875c14.905 0 29.852-5.79 41.06-15.311 11.2-9.515 18.547-22.645 18.547-37.303 0-29.61-23.058-52.613-52.762-52.613h-92.41-1.651l-.313-1.622-17.108-88.718c-6.676-29.901-33.154-49.325-59.165-42.84l-.025.006-.026.006c-30.009 6.651-49.488 33.068-42.987 59.001l.014.055.011.056 13.69 71.681.454 2.375h-2.419-106.101-1.651l-.312-1.622-17.108-88.719c-6.677-29.901-33.155-49.324-59.165-42.839l-.026.006-.025.006c-30.01 6.651-49.488 33.068-42.987 59.001l.014.055.011.056 13.691 71.681.454 2.375h-2.418-41.072c-29.704 0-52.762 23.003-52.762 52.613s23.057 52.614 52.762 52.614h58.185 1.681l.289 1.656 13.69 78.507zm107.554 2.343h-1.682l-.288-1.656-13.691-78.507-.408-2.343h2.379 106.101 1.681l.289 1.656 13.691 78.507.408 2.343h-2.379-106.101z" stroke="#ff8a00" stroke-opacity=".4" stroke-width="4"/><defs><linearGradient id="A" x1="287.5" y1="0" x2="287.5" y2="566" gradientUnits="userSpaceOnUse"><stop stop-color="#f90"/><stop offset="1" stop-color="#ff6b00"/></linearGradient></defs></svg>
